X: 43525
T: Yo Skippely Dai Dee Doe
R: slide
M: 12/8
K: Amajor
|:c3 cBA F2AE2A|F2A EFA B3 BAB|
c3 cBA F2A E2A|1 e2c BcB A3 A2B:|2 e2c BcB A3 efg||
a3 gfe f2f e3|c3 cBA B3 efg|a2 gfe f2f e3|c2c BcB A3 gfe|
a3 gfe f2f e3|c3 cBA B3 BAB|c3 cBA F2A E2A|e2c BcB A6||

